X:1
T:Though Your Sins Be as Scarlet
T:William Howard Doane
T:Though Your Sins Be as Scarlet
T:Public Domain
T:Public Domain
T:Public Domain
C:William Howard Doane
Z:Public Domain
%%score ( 1 2 ) ( 3 4 )
L:1/8
M:3/4
K:Ab
V:1 treble 
V:2 treble 
V:3 bass 
V:4 bass 
V:1
"^Duet" E>"^Gently"E | E4 (3(CD)E | F2 E2 E>A | G>A G2 F2 | E4 E>E | E4 (3(CD)E | F2 E2 E>A | %7
w: 1.“Though your|sins be * as|scar- let, They shall|be as white as|snow; Though your|sins be * as|scar- let, They shall|
w: 2.~Hear the|voice that * en-|treats you, O re-|turn ye un- to|God! Hear the|voice that * en-|treats you, O re-|
w: 3.~He’ll for-|give your * trans-|gress- ions, And re-|mem- ber them no|more; He’ll for-|give your * trans-|gress- ions, And re-|
 G>A G2 B2 | A4"^Quartet" (3[DE][DF][DE] | ([DB]4- (3[DB])[Ec][DB] | [CA]2 [CA]2 AB | c4 C2 | %12
w: be as white as|snow; Though they be|red * li- ke|crim- son, They shall|wool!” “Though|
w: turn ye un- to|God! He is of|great * co- m-|pas- sion, And of|love; Hear|
w: mem- ber them no|more; “Look un- to|Me, * y- e|peo- ple,” Saith the|God! He’ll|
 [CF]4"^Duet" E>E | E4 (3(CD)E | F2 E2"^Quartet" [Ec]>[Ec] | [Ec]4 (3([CA][DB])[Ec] | %16
w: be as scar-|let, Though * your|sins be as scar-|let, They * shall|
w: that en- treats|you, Hear * the|voice that en- treats|you, O * re-|
w: your trans- gress-|ions, He’ll * for-|give your trans- gress-|ions, And * re-|
 [Fd]2 [Ec]2 [EB][EA] | [FA]3 [=EG] [FA]>[DF] |!f! [CE]4 [CE][CE] | [B,E]3 [CE] [DE]>[B,E] | %20
w: be as white as|snow, They shall be|as white as|snow.” * * *|
w: turn ye un- to|God! O re- turn|ye un- to|God! * * *|
w: mem- ber them no|more, And re- mem-|ber them no|more. * * *|
 [CE]4 |] %21
w: |
w: |
w: |
V:2
 x2 | x6 | x6 | x6 | x6 | x6 | x6 | x6 | x6 | x6 | x4 AB | c4 C2 | x6 | x6 | x6 | x6 | x6 | x6 | %18
w: ||||||||||be as|your sins|||||||
w: ||||||||||wond- rous|the voice|||||||
w: ||||||||||Lord your|for- give|||||||
 x6 | x6 | x4 |] %21
w: |||
w: |||
w: |||
V:3
 [A,C]>[A,C] | [A,C]4 (3(A,-[A,B,])[A,C] | [A,D]2 [A,C]2 [A,,C]>[A,,C] | %3
 [E,B,]>[E,C] [E,B,]2 [E,D]2 | [A,C]4 [A,C]>[A,C] | [A,C]4 (3(A,-[A,B,])[A,C] | %6
 [A,D]2 [A,C]2 [A,,C]>[A,,C] | [E,B,]>[E,C] [E,B,]2 [E,D]2 | [A,,C]4 (3[E,G,][E,A,][E,G,] | %9
 (E,2 (3E,E,E, (3:2:2[E,G,]2) [D,F,] | [A,,A,]2 [A,,A,]2 [A,,A,][B,,B,] | [C,C]4 [C,B,]2 | %12
 [F,A,]4 [G,D]>[G,D] | [A,C]4 (3(A,-[A,B,])[A,C] | [A,D]2 [A,C]2 [A,,A,]>[A,,A,] | %15
 [A,,A,]4 (3:2:2[A,,A,]2 [A,,A,] | [A,,A,]2 [A,,A,]2 [C,A,][C,A,] | [D,A,]3 [D,A,] [D,A,]>[D,A,] | %18
 [A,,A,]4 [A,,A,][A,,A,] | [E,G,]3 [E,A,] [E,B,]>[E,G,] | [A,,A,]4 |] %21
V:4
 x2 | x6 | x6 | x6 | x6 | x6 | x6 | x6 | x6 | G,4- x2 | x6 | x6 | x6 | x6 | x6 | x6 | x6 | x6 | %18
 x6 | x6 | x4 |] %21

